icons/desktop/12/svg/flower-12.svg

<svg width="12" height="12" viewBox="0 0 12 12" fill="none" xmlns="http://www.w3.org/2000/svg">
<path d="M6.5 5.625C6.983 5.625 7.375 6.017 7.375 6.5C7.375 6.983 6.983 7.375 6.5 7.375C6.017 7.375 5.625 6.983 5.625 6.5C5.625 6.017 6.017 5.625 6.5 5.625Z" fill="black"/>
<path fill-rule="evenodd" clip-rule="evenodd" d="M6.50098 1C7.77188 1 8.84934 1.84472 9.19043 3.01758C10.7392 3.0178 12 4.27926 12 5.82812C12 6.65308 11.6403 7.41839 11.0283 7.94336C11.2242 8.33125 11.3281 8.75758 11.3281 9.19043C11.3279 10.7392 10.0674 12 8.51758 12C7.74185 11.9999 7.01986 11.6842 6.50098 11.1475C5.98208 11.6832 5.26111 11.9999 4.48438 12C2.93552 12 1.67406 10.7392 1.67383 9.19043C1.67383 8.75758 1.77779 8.33123 1.97266 7.94434C1.36171 7.41936 1.00199 6.65406 1.00195 5.82812C1.00195 4.27912 2.2625 3.01758 3.8125 3.01758C4.15466 1.84486 5.23018 1.00002 6.50098 1ZM6.5 2.24902C5.66901 2.24903 4.9882 2.90329 4.9502 3.73828C4.94112 3.92512 4.85005 4.09704 4.7002 4.20898C4.5522 4.32098 4.35771 4.36041 4.17871 4.31641C4.0388 4.28244 3.9215 4.2666 3.81055 4.2666C2.95076 4.26686 2.25098 4.9673 2.25098 5.82715C2.25103 6.41309 2.5823 6.94489 3.11426 7.21387C3.28618 7.29988 3.4083 7.46144 3.44629 7.65039C3.48412 7.83826 3.43155 8.0348 3.30664 8.17969C3.13164 8.38269 2.92285 8.72343 2.92285 9.19043C2.92308 10.0502 3.62354 10.75 4.4834 10.75C5.1152 10.7498 5.67988 10.3729 5.92285 9.78906C6.01985 9.55607 6.24899 9.40431 6.50098 9.4043C6.75298 9.4043 6.98012 9.55506 7.07812 9.78906C7.32109 10.3729 7.8858 10.7498 8.5166 10.75C9.37646 10.75 10.0779 10.0512 10.0781 9.19043C10.0781 8.72443 9.86934 8.38271 9.69434 8.17871C9.56844 8.03282 9.51688 7.83825 9.55371 7.65039C9.5917 7.46244 9.71384 7.30088 9.88477 7.21387C10.4177 6.94389 10.749 6.41309 10.749 5.82715C10.749 4.96729 10.0503 4.26684 9.18945 4.2666C9.07949 4.2666 8.95921 4.28343 8.82227 4.31641C8.64027 4.36141 8.4498 4.32098 8.2998 4.20898C8.15096 4.09704 8.05985 3.92412 8.05078 3.73828C8.01178 2.90328 7.331 2.24902 6.5 2.24902Z" fill="black"/>
</svg>

<!-- This Source Code Form is subject to the terms of the Mozilla Public
   - License, v. 2.0. If a copy of the MPL was not distributed with this
   - file, You can obtain one at http://mozilla.org/MPL/2.0/. -->
<svg xmlns="http://www.w3.org/2000/svg" width="12" height="12" fill="context-fill" fill-opacity="context-fill-opacity" viewBox="0 0 12 12">
    <path d="M6.5 5.625a.875.875 0 1 1 0 1.75.875.875 0 0 1 0-1.75" />
    <path fill-rule="evenodd" d="M6.501 1c1.27 0 2.348.845 2.69 2.018A2.814 2.814 0 0 1 12 5.828c0 .825-.36 1.59-.972 2.115.196.388.3.815.3 1.247 0 1.55-1.26 2.81-2.81 2.81a2.8 2.8 0 0 1-2.017-.852A2.8 2.8 0 0 1 4.484 12a2.814 2.814 0 0 1-2.81-2.81c0-.432.104-.859.299-1.246a2.78 2.78 0 0 1-.971-2.116c0-1.549 1.26-2.81 2.81-2.81A2.8 2.8 0 0 1 6.502 1M6.5 2.249c-.831 0-1.512.654-1.55 1.49a.624.624 0 0 1-.771.577 1.5 1.5 0 0 0-.368-.05c-.86 0-1.56.701-1.56 1.561 0 .586.331 1.118.863 1.387a.625.625 0 0 1 .193.966 1.54 1.54 0 0 0-.384 1.01c0 .86.7 1.56 1.56 1.56.632 0 1.197-.377 1.44-.96a.627.627 0 0 1 1.155 0c.243.583.808.96 1.439.96.86 0 1.56-.699 1.561-1.56 0-.466-.209-.807-.384-1.011a.624.624 0 0 1 .19-.965c.534-.27.865-.8.865-1.387 0-.86-.699-1.56-1.56-1.56q-.163 0-.367.05a.622.622 0 0 1-.771-.579A1.555 1.555 0 0 0 6.5 2.25" clip-rule="evenodd" />
</svg>
